src/actions/22/labplot-xy-fourier-filter-curve.svg

<svg xmlns="http://www.w3.org/2000/svg" viewBox="0 0 22 22">
  <defs id="defs3051">
    <style type="text/css" id="current-color-scheme">
      .ColorScheme-Text {
        color:#2e3440;
      }
      .ColorScheme-Highlight {
        color:#88c0d0;
      }
      </style>
  </defs>
 <path 
     style="fill:currentColor;fill-opacity:1;stroke:none" 
     d="M 3 3 L 3 4 L 3 7 L 4 7 L 4 4 L 7 4 L 7 3 L 4 3 L 3 3 z M 10 3 L 10 6 L 7 6 L 6 6 L 6 13 L 3 13 L 3 14 L 10 14 L 10 19 L 11 19 L 11 14 L 19 14 L 19 13 L 16 13 L 16 6 L 15 6 L 11 6 L 11 3 L 10 3 z M 15 3 L 15 4 L 18 4 L 18 7 L 19 7 L 19 4 L 19 3 L 18 3 L 15 3 z M 7 7 L 10 7 L 10 13 L 7 13 L 7 7 z M 11 7 L 15 7 L 15 13 L 11 13 L 11 7 z M 3 15 L 3 18 L 3 19 L 7 19 L 7 18 L 4 18 L 4 15 L 3 15 z M 18 15 L 18 18 L 15 18 L 15 19 L 19 19 L 19 18 L 19 15 L 18 15 z "
     class="ColorScheme-Text"
     />
 <path 
     style="fill:currentColor;fill-opacity:1;stroke:none" 
     d="M 11,5 C 10.09558,5 9.3630583,5.6034836 8.7695312,6.3652344 8.1760043,7.1269864 7.685626,8.095759 7.28125,9.056641 6.472498,10.978403 6.0136719,12.882813 6.0136719,12.882812 l 0.9726562,0.234376 c 0,0 0.4474039,-1.845591 1.2167969,-3.673829 C 8.587822,8.529241 9.0544716,7.6230136 9.5566406,6.9785156 10.056781,6.3366186 10.556129,6.0065983 10.994141,6.0039062 c 0.4208,0.01378 0.782978,0.1849888 1.15625,0.5429688 0.375823,0.360428 0.739876,0.9081416 1.076171,1.587891 0.643616,1.300928 1.184369,3.072232 1.722657,4.865234 l 1.046875,0 c -0.0052,-0.0174 -0.01041,-0.03338 -0.01563,-0.05078 C 15.41832,11.074493 14.857287,9.175514 14.123047,7.6914062 13.755927,6.9493522 13.345582,6.307366 12.841797,5.8242188 12.338012,5.3410719 11.715369,5.0192827 11.013672,5 l -0.0059,0 z"
     class="ColorScheme-Highlight"
     />
</svg>

<svg viewBox="0 0 22 22" xmlns="http://www.w3.org/2000/svg">
 <defs>
  <style type="text/css">.ColorScheme-Text {
        color:#2e3440;
      }
      .ColorScheme-Highlight {
        color:#88c0d0;
      }</style>
 </defs>
 <path class="ColorScheme-Text" d="m3 3v1 3h1v-3h3v-1h-3-1zm7 0v3h-3-1v7h-3v1h7v5h1v-5h8v-1h-3v-7h-1-4v-3h-1zm5 0v1h3v3h1v-3-1h-1-3zm-8 4h3v6h-3v-6zm4 0h4v6h-4v-6zm-8 8v3 1h4v-1h-3v-3h-1zm15 0v3h-3v1h4v-1-3h-1z" fill="currentColor"/>
 <path class="ColorScheme-Highlight" d="m11 5c-0.90442 0-1.6369 0.60348-2.2305 1.3652-0.59353 0.76175-1.0839 1.7305-1.4883 2.6914-0.80875 1.9218-1.2676 3.8262-1.2676 3.8262l0.97266 0.23438s0.4474-1.8456 1.2168-3.6738c0.3847-0.91412 0.85135-1.8203 1.3535-2.4648 0.50014-0.6419 0.99949-0.97192 1.4375-0.97461 0.4208 0.01378 0.78298 0.18499 1.1562 0.54297 0.37582 0.36043 0.73988 0.90814 1.0762 1.5879 0.64362 1.3009 1.1844 3.0722 1.7227 4.8652h1.0469c-0.0052-0.0174-0.01041-0.03338-0.01563-0.05078-0.56214-1.8747-1.1232-3.7737-1.8574-5.2578-0.36712-0.74205-0.77746-1.384-1.2812-1.8672-0.50378-0.48315-1.1264-0.80494-1.8281-0.82422h-0.0059z" fill="currentColor"/>
</svg>
